svgs/thin/chalkboard-user.svg

<svg xmlns="http://www.w3.org/2000/svg" viewBox="0 0 640 512"><!-- Font Awesome Pro 6.0.0-alpha2 by @fontawesome - https://fontawesome.com License - https://fontawesome.com/license (Commercial License) --><path d="M616 0H184C170.781 0 160 10.766 160 24V88C160 92.422 163.594 96 168 96S176 92.422 176 88V24C176 19.594 179.594 16 184 16H616C620.406 16 624 19.594 624 24V392C624 396.406 620.406 400 616 400H544V336C544 327.162 536.836 320 528 320H400C391.164 320 384 327.162 384 336V400H360C355.594 400 352 403.578 352 408S355.594 416 360 416H616C629.219 416 640 405.234 640 392V24C640 10.766 629.219 0 616 0ZM528 400H400V336H528V400ZM192 352H128C57.307 352 0 409.307 0 480C0 497.672 14.326 512 32 512H288C305.674 512 320 497.672 320 480C320 409.307 262.693 352 192 352ZM288 496H32C23.178 496 16 488.822 16 480C16 418.242 66.242 368 128 368H192C253.758 368 304 418.242 304 480C304 488.822 296.822 496 288 496ZM160 320C213.02 320 256 277.02 256 224S213.02 128 160 128S64 170.98 64 224S106.98 320 160 320ZM160 144C204.111 144 240 179.887 240 224C240 268.111 204.111 304 160 304S80 268.111 80 224C80 179.887 115.889 144 160 144Z"/></svg>

<svg xmlns="http://www.w3.org/2000/svg" viewBox="0 0 640 512"><!--! Font Awesome Pro 6.3.0 by @fontawesome - https://fontawesome.com License - https://fontawesome.com/license (Commercial License) Copyright 2023 Fonticons, Inc. --><path d="M616 0H184C170.8 0 160 10.77 160 24v64C160 92.42 163.6 96 168 96S176 92.42 176 88v-64c0-4.406 3.594-8 8-8h432c4.406 0 8 3.594 8 8v368c0 4.406-3.594 8-8 8H544v-64c0-8.838-7.164-16-16-16h-128c-8.836 0-16 7.162-16 16v64h-24c-4.406 0-8 3.578-8 8S355.6 416 360 416h256c13.22 0 24-10.77 24-24V24C640 10.77 629.2 0 616 0zM528 400h-128v-64h128V400zM192 352H128c-70.69 0-128 57.31-128 128c0 17.67 14.33 32 32 32h256c17.67 0 32-14.33 32-32C320 409.3 262.7 352 192 352zM288 496H32c-8.822 0-16-7.178-16-16c0-61.76 50.24-112 112-112h64c61.76 0 112 50.24 112 112C304 488.8 296.8 496 288 496zM160 320c53.02 0 96-42.98 96-96S213 128 160 128S64 170.1 64 224S106.1 320 160 320zM160 144c44.11 0 80 35.89 80 80c0 44.11-35.89 80-80 80S80 268.1 80 224C80 179.9 115.9 144 160 144z"/></svg>
